!!!!SEGMENT: pl-wtm--r-730-7-m--001_moniuszko-stanislaw--walc.krn
!!!cenid: 18xx:1684
!!!COM: Moniuszko, Stanisław
!!!COM-rismid: pe30008351
!!!CDT: 1819/05/05-1872/06/04
!!!CNT: Polish
!!!OTL: Walc
!!!PDT:
!!!AGN: Secular; Waltz
!!!SMS-siglum: PL-Wtm
!!!SMS-shelfmark: R 730/7/M
!!!SMS-shelfwork: 001 W
!!!SMS-variant:
!!!SMS-altvar:
!!!NIFC-rismid: 1001099773
!!!URL-scan: http://repozytorium.nifc.pl/skany/pl-wtm-nut--r730m-1-43
!!!ONB-nifc: Skan 0013. No. 756
!!!AIN: 1 empty
!!!key:
**kern	**kern
*part1	*part1
*staff2	*staff1
*Iempty	*Iforte
*	*I"Fortepian
*	*I'pf
*clefF4	*clefG2
*k[f#c#]	*k[f#c#]
*D:	*D:
*M3/4	*M3/4
*>[A,B,B1,B,B2]	*>[A,B,B1,B,B2]
=1	=1
*>A	*>A
2.r	8a'/L
.	8a'/J
.	4a'/
.	4g#X'/
=2	=2
2.r	4gn'/
.	4f#'/
.	4e'/
=3	=3
2.r	4d'/
.	4c#'/
.	4B'/
=4	=4
2.r	(2A/
.	4G#X/)
=5	=5
8AA/L	8eL 8c# 8Gn'/
8AA/J	8eJ 8c# 8G'/
4AA/	4e 4c# 4G'/
4AA/	4f# 4c# 4G'/
=6	=6
4AA/	4g 4c# 4G'/
4AA/	4d 4B'/
4AA/	4c# 4G'/
!!LO:LB:g=original
=7	=7
4AA/	4d 4F#/
(4A\	(4f# 4d/
4G#X\	4fn 4d/
=8	=8
4A\)	4e 4c#/)
4r	4r
4r	4r
=9	=9
8a>\L	8a/L
8a>\J	8a/J
4a>\	4a/
4g#X>\	4g#X/
=10	=10
4gn>\	4cc#/
4f#>\	4dd/
4e>\	4ee/
=11	=11
4d\	4ff# 4a\
4c#\	4ff# 4ee 4a#X\
8B\L	4ff# 4dd#X 4b\
8A\J	.
=12	=12
4G\	4ee 4b\
4F#\	4ff# 4dd#X 4b\
4E\	4gg 4ee 4b\
=13	=13
8A\L	8ff#L 8dd 8a\
8A\J	8ff#J 8dd 8a\
4A\	4aa 4ff# 4a\
4r	4r
=14	=14
8AA/L	8bbL 8gg 8ee\
8AA/J	8bbJ 8gg 8ee\
4AA/	4ccc# 4gg 4ee\
4r	4r
=15	=15
!LO:TX:a:t=2.	!LO:TX:a:t=2.
1.r	1.r
=16	=16
.	.
!!LO:LB:g=original
=17!!	=17!!
4DD/	(8ff#L 8dd/
.	8a/J)
4F# 4D\	8d'/
.	8r
4F# 4D\	4r
=18	=18
*rep	*
4DD/	4r
.	8qcc#/
4F# 4D\	8dd\
.	8r
.	8qbb/
4F# 4D\	8aa\
.	8r
*Xrep	*
=19	=19
4GG/	(8ggL 8ee/
.	8b/J)
4B 4G\	8e'/
.	8r
4B 4G\	4r
=20	=20
4EE/	4r
.	8qdd#X/
4B 4G\	8ee\
.	8r
.	8qccc#/
4B 4G\	8bb\
.	8r
=21	=21
4AA/	8r
.	8aa\
4c# 4G 4E\	4aa\
4c# 4G 4E\	4gg#X\
=22	=22
*rep	*
4AA/	4ggn\
4c# 4G 4E\	4b\
4c# 4G 4E\	4cc#\
*Xrep	*
=23	=23
4DD/	8.r
.	16dd\KL
4d 4F# 4D\	8gg\
.	8ff#\
4d 4F# 4D\	8dd\
.	8b\J
=24	=24
4AA/	8.r
.	16a/KL
4c# 4G 4E\	8cc#/
.	8b/
4c# 4G 4E\	8g/
.	8e/J
=25	=25
4DD/	(8ff#L 8dd/
.	8a/J)
4F# 4D\	8d'/
.	8r
4F# 4D\	4r
!!LO:LB:g=original
=26	=26
4DD/	4r
.	8qcc#/
4F# 4D\	8dd\
.	8r
.	8qbb/
4F# 4D\	8aa\
.	8r
=27	=27
4GG/	(8ggL 8ee/
.	8b/J)
4B 4G\	8e'/
.	8r
4B 4G\	4r
=28	=28
*rep	*
4GG/	4r
.	8qdd#X/
4B 4G\	8ee\
.	8r
.	8qccc#/
4B 4G\	8bb\
.	8r
*Xrep	*
=29	=29
4AA/	8aaL 8a\
.	8aaJ 8a\
4c# 4G 4E\	4aa 4a\
4c# 4G 4E\	4gg#X 4g#X\
=30	=30
4AA/	4ggn 4gn\
4e 4A\	4b 4g\
4e 4A\	4cc# 4g\
=31	=31
4d\	4dd 4f#\
4A\	8cc#X\L
.	8dd\
4F#\	8ff#\
.	8aa\J
=32	=32
4D\	4ddd\
4DD/	4r
4r	4r
=33!|:	=33!|:
*>B	*>B
4c# 4F#\	4ff# 4a#X\
8c#L 8F#\	8ff#L 8a#\
8c# 8F#\	8ff# 8a#\
8c# 8F#\	8ff# 8a#\
8c#J 8F#\	8ff#J 8a#\
=34	=34
!	!LO:SIC:v:n=2:s=4a#
4c# 4F#\	4ff# 4a\
4c# 4E#X\	4gg#X 4b\
4F# 4En\	4aa#X 4cc#\
!!LO:LB:g=original
=35	=35
4F# 4D\	4bb 4dd\
4A#X 4C#\	4ccc# 4ee\
4B 4BB\	4bb 4ff#\
=36	=36
*	*8va
4A 4AA\	2eee 2gg/
4AA/	.
4r	4eee#X 4gg#X/
=37	=37
4DD/	4fff# 4aa\
4d 4A 4F#\	8eee\L
.	8ddd\
4d 4A 4F#\	8ccc#\
.	8ddd\J
=38	=38
4GG/	4.ccc#\
4B 4G\	.
.	8bb/L
4B 4G\	8gg/
.	8ee/J
=39	=39
!LO:TX:a:t=Ima	!
*>B1	*>B1
4AA/	4.dd/
4G 4E\	.
.	8cc#/L
4G 4E\	8b/
.	8cc#/J
=40	=40
4DD/	4.ee/
4F# 4D\	.
.	8dd/L
4F# 4D\	8cc#/
.	8dd/J
=41:|!	=41:|!
!LO:TX:a:t=2da	!
*>B2	*>B2
4AA/	4.dd/
4G 4E\	.
.	8cc#/L
4AA/	8bb/
.	8aa/J
=42	=42
4F# 4D\	4dd/
*	*X8va
4DD/	4r
!	!LO:TX:b:t=V&colon; S.
4r	4r
==	==
*-	*-
!!!system-decoration: [s1,s2]
!!!RDF**kern: > = above
!!!ENC: Marta Lawrence
!!!END: 2021-04-22
!!!ENC: Andrzej Kubiczek
!!!END: 2021-04-05
